www/assets/icons/insert_link.svg

<svg xmlns="http://www.w3.org/2000/svg" width="24" height="24" viewBox="0 0 24 24" fill='currentColor'><path d="M3.9 12c0-1.71 1.39-3.1 3.1-3.1h4V7H7c-2.76 0-5 2.24-5 5s2.24 5 5 5h4v-1.9H7c-1.71 0-3.1-1.39-3.1-3.1M8 13h8v-2H8zm9-6h-4v1.9h4c1.71 0 3.1 1.39 3.1 3.1s-1.39 3.1-3.1 3.1h-4V17h4c2.76 0 5-2.24 5-5s-2.24-5-5-5"/></svg>

<svg width="24" height="24" viewBox="0 0 24 24" xmlns="http://www.w3.org/2000/svg" fill='currentColor'><path d="M3.9 12C3.9 10.29 5.29 8.9 7 8.9H11V7H7C4.24 7 2 9.24 2 12C2 14.76 4.24 17 7 17H11V15.1H7C5.29 15.1 3.9 13.71 3.9 12ZM8 13H16V11H8V13ZM17 7H13V8.9H17C18.71 8.9 20.1 10.29 20.1 12C20.1 13.71 18.71 15.1 17 15.1H13V17H17C19.76 17 22 14.76 22 12C22 9.24 19.76 7 17 7Z"/></svg>
